assets/Keycap hashtag/Flat/keycap_hashtag_flat.svg

<svg width="32" height="32" viewBox="0 0 32 32" fill="none" xmlns="http://www.w3.org/2000/svg">
<path d="M2 6C2 3.79086 3.79086 2 6 2H26C28.2091 2 30 3.79086 30 6V26C30 28.2091 28.2091 30 26 30H6C3.79086 30 2 28.2091 2 26V6Z" fill="#00A6ED"/>
<path d="M12.4123 9.40369C12.4616 8.61468 13.1159 8 13.9064 8C14.77 8 15.4545 8.7286 15.4006 9.59046L15.2666 11.7344C15.2576 11.8783 15.3719 12 15.5161 12H17.0151C17.1472 12 17.2564 11.8974 17.2647 11.7656L17.4123 9.40369C17.4616 8.61468 18.1159 8 18.9064 8C19.77 8 20.4545 8.7286 20.4006 9.59046L20.2666 11.7344C20.2576 11.8783 20.3719 12 20.5161 12H21.5C22.3284 12 23 12.6716 23 13.5C23 14.3284 22.3284 15 21.5 15H20.2974C20.1653 15 20.0561 15.1026 20.0478 15.2344L19.9541 16.7344C19.9451 16.8783 20.0594 17 20.2036 17H21.5C22.3284 17 23 17.6716 23 18.5C23 19.3284 22.3284 20 21.5 20H19.9849C19.8528 20 19.7436 20.1026 19.7353 20.2344L19.5877 22.5963C19.5384 23.3853 18.8841 24 18.0936 24C17.23 24 16.5455 23.2714 16.5994 22.4095L16.7334 20.2656C16.7424 20.1217 16.6281 20 16.4839 20H14.9849C14.8528 20 14.7436 20.1026 14.7353 20.2344L14.5877 22.5963C14.5384 23.3853 13.8841 24 13.0936 24C12.23 24 11.5455 23.2714 11.5994 22.4095L11.7334 20.2656C11.7424 20.1217 11.6281 20 11.4839 20H10.5C9.67157 20 9 19.3284 9 18.5C9 17.6716 9.67157 17 10.5 17H11.7026C11.8347 17 11.9439 16.8974 11.9522 16.7656L12.0459 15.2656C12.0549 15.1217 11.9406 15 11.7964 15H10.5C9.67157 15 9 14.3284 9 13.5C9 12.6716 9.67157 12 10.5 12H12.0151C12.1472 12 12.2564 11.8974 12.2647 11.7656L12.4123 9.40369ZM16.7026 17C16.8347 17 16.9439 16.8974 16.9522 16.7656L17.0459 15.2656C17.0549 15.1217 16.9406 15 16.7964 15H15.2974C15.1653 15 15.0561 15.1026 15.0478 15.2344L14.9541 16.7344C14.9451 16.8783 15.0594 17 15.2036 17H16.7026Z" fill="white"/>
</svg>

<svg xmlns="http://www.w3.org/2000/svg" width="32" height="32" fill="none"><path fill="#00A6ED" d="M2 6a4 4 0 0 1 4-4h20a4 4 0 0 1 4 4v20a4 4 0 0 1-4 4H6a4 4 0 0 1-4-4V6Z"/><path fill="#fff" d="M12.412 9.404a1.497 1.497 0 1 1 2.989.186l-.134 2.144a.25.25 0 0 0 .25.266h1.498a.25.25 0 0 0 .25-.234l.147-2.362a1.497 1.497 0 1 1 2.989.186l-.134 2.144a.25.25 0 0 0 .25.266h.983a1.5 1.5 0 0 1 0 3h-1.203a.25.25 0 0 0-.25.234l-.093 1.5a.25.25 0 0 0 .25.266H21.5a1.5 1.5 0 0 1 0 3h-1.515a.25.25 0 0 0-.25.234l-.147 2.362a1.497 1.497 0 1 1-2.989-.186l.134-2.144a.25.25 0 0 0-.25-.266h-1.498a.25.25 0 0 0-.25.234l-.147 2.362a1.497 1.497 0 1 1-2.989-.186l.134-2.144a.25.25 0 0 0-.25-.266H10.5a1.5 1.5 0 0 1 0-3h1.203a.25.25 0 0 0 .25-.234l.093-1.5a.25.25 0 0 0-.25-.266H10.5a1.5 1.5 0 0 1 0-3h1.515a.25.25 0 0 0 .25-.234l.147-2.362ZM16.702 17a.25.25 0 0 0 .25-.234l.094-1.5a.25.25 0 0 0-.25-.266h-1.499a.25.25 0 0 0-.25.234l-.093 1.5a.25.25 0 0 0 .25.266h1.499Z"/></svg>
